boxicons/svg/regular/bx-message-add.svg

<svg xmlns="http://www.w3.org/2000/svg" width="24" height="24" viewBox="0 0 24 24"><path d="M20 2H4c-1.103 0-2 .897-2 2v12c0 1.103.897 2 2 2h3v3.767L13.277 18H20c1.103 0 2-.897 2-2V4c0-1.103-.897-2-2-2zm0 14h-7.277L9 18.233V16H4V4h16v12z"/><path d="M11 14h2v-3h3V9h-3V6h-2v3H8v2h3z"/></svg>

<svg xmlns="http://www.w3.org/2000/svg" width="24" height="24" viewBox="0 0 24 24"><path d="M20,2H4C2.897,2,2,2.897,2,4v12c0,1.103,0.897,2,2,2h3v3.767L13.277,18H20c1.103,0,2-0.897,2-2V4C22,2.897,21.103,2,20,2z M20,16h-7.277L9,18.233V16H4V4h16V16z"/><path d="M11 14L13 14 13 11 16 11 16 9 13 9 13 6 11 6 11 9 8 9 8 11 11 11z"/></svg>
